build/svg/sd/res/pageobjs.svg

<?xml version="1.0" encoding="UTF-8" standalone="no"?>
<svg
   xmlns:dc="http://purl.org/dc/elements/1.1/"
   xmlns:cc="http://creativecommons.org/ns#"
   xmlns:rdf="http://www.w3.org/1999/02/22-rdf-syntax-ns#"
   xmlns:svg="http://www.w3.org/2000/svg"
   xmlns="http://www.w3.org/2000/svg"
   xmlns:sodipodi="http://sodipodi.sourceforge.net/DTD/sodipodi-0.dtd"
   xmlns:inkscape="http://www.inkscape.org/namespaces/inkscape"
   viewBox="0 0 24 24"
   version="1.1"
   id="svg8"
   sodipodi:docname="pageobjs.svg"
   inkscape:version="0.92.5 (2060ec1f9f, 2020-04-08)"
   inkscape:export-filename="/home/jupiter007/Libreoffice yaru theme fullcolor/build/sd/res/pageobjs.png"
   inkscape:export-xdpi="96"
   inkscape:export-ydpi="96">
  <metadata
     id="metadata14">
    <rdf:RDF>
      <cc:Work
         rdf:about="">
        <dc:format>image/svg+xml</dc:format>
        <dc:type
           rdf:resource="http://purl.org/dc/dcmitype/StillImage" />
      </cc:Work>
    </rdf:RDF>
  </metadata>
  <defs
     id="defs12" />
  <sodipodi:namedview
     pagecolor="#ffffff"
     bordercolor="#666666"
     borderopacity="1"
     objecttolerance="10"
     gridtolerance="10"
     guidetolerance="10"
     inkscape:pageopacity="0"
     inkscape:pageshadow="2"
     inkscape:window-width="1920"
     inkscape:window-height="1011"
     id="namedview10"
     showgrid="true"
     inkscape:zoom="13.906433"
     inkscape:cx="-3.6804316"
     inkscape:cy="13.892196"
     inkscape:window-x="0"
     inkscape:window-y="32"
     inkscape:window-maximized="1"
     inkscape:current-layer="svg8">
    <inkscape:grid
       type="xygrid"
       id="grid822" />
  </sodipodi:namedview>
  <path
     sodipodi:nodetypes="cccscsccccccccscscccccc"
     inkscape:connector-curvature="0"
     id="path4237-1"
     d="M 7.0107717,2.972815 C 5.7525716,2.987315 4.8318805,2.942215 4.0791307,3.35758 3.7027609,3.56524 3.4058999,3.916967 3.2412398,4.355627 3.0765699,4.794297 3.016631,5.315215 3.016631,5.972815 v 1.488281 9.512442 c 0,0.65761 0.0599,1.178578 0.2246089,1.617187 0.1646799,0.438612 0.461531,0.788524 0.8378909,0.996093 0.7527199,0.41513 1.6735409,0.371649 2.931641,0.386719 h 0.002 10.0058592 0.0039 c 1.25819,-0.0145 2.178891,0.0306 2.931641,-0.384766 0.37637,-0.20766 0.673221,-0.559386 0.837891,-0.998046 0.164539,-0.438671 0.224618,-0.959578 0.224618,-1.617187 V 7.439612 5.972815 c 0,-0.6576 -0.0599,-1.178578 -0.224609,-1.617188 C 20.627392,3.917027 20.330541,3.567094 19.954181,3.359534 19.201411,2.944404 18.28058,2.987895 17.02249,2.972815 h -0.002 -10.0058593 z"
     style="font-style:normal;font-variant:normal;font-weight:normal;font-stretch:normal;font-size:15px;line-height:125%;font-family:Ubuntu;-inkscape-font-specification:Ubuntu;text-align:center;letter-spacing:0px;word-spacing:0px;writing-mode:lr-tb;text-anchor:middle;display:inline;opacity:0.6;fill:#000000;fill-opacity:1;stroke:none;stroke-width:0.99980211" />
  <path
     inkscape:connector-curvature="0"
     id="path1993"
     d="M 10,4 C 8.44342,4.0108 6.8900098,3.98825 5.3400588,4.03878 4.8788296,4.08145 4.3238707,4.245199 4.1847189,4.748746 c -0.218994,0.635347 -0.108414,1.333788 -0.145796,1.981925 -0.0078,2.297085 -0.02297,8.596569 0.02152,10.885921 0.0391,0.46193 0.2025509,1.012664 0.6987557,1.163665 0.632456,0.225082 1.2841439,0.12274 1.935974,0.154299 1.4242364,0.0068 4.8505634,0.01102 6.2764204,0.01131 1.704531,3.5e-4 3.408388,-0.005 5.10719,-0.01851 0.511911,-0.01201 1.183699,0.01993 1.584745,-0.40519 0.421097,-0.539783 0.287073,-1.268022 0.322745,-1.903788 0.01187,-2.444324 0.02769,-8.911236 -0.0219,-11.356935 C 19.915093,4.859402 19.794381,4.39849 19.389234,4.216967 18.721065,3.92287 17.963029,4.048948 17.263313,4.011394 15.508906,3.999594 11.754439,3.998914 10,4.000004 Z"
     style="opacity:1;vector-effect:none;fill:#ffffff;fill-opacity:1;stroke:none;stroke-width:1;stroke-linecap:round;stroke-linejoin:bevel;stroke-miterlimit:4;stroke-dasharray:none;stroke-dashoffset:0;stroke-opacity:1"
     sodipodi:nodetypes="cccccccsccccccc" />
  <path
     d="m 10,12 v 3 2 h 7 v -5 h -1.75 z"
     id="path4"
     inkscape:connector-curvature="0"
     style="fill:#80a3fa;fill-opacity:1" />
  <path
     d="m 7,6 v 8 h 4 V 6 Z"
     id="path6"
     inkscape:connector-curvature="0"
     style="fill:#d85eca;fill-opacity:1" />
</svg>

<svg xmlns="http://www.w3.org/2000/svg" viewBox="0 0 24 24"><path d="M7.01 2.973c-1.257.014-2.178-.03-2.93.385a1.88 1.88 0 00-.839.998c-.164.438-.224.96-.224 1.617v11.001c0 .657.06 1.178.224 1.617.165.438.462.788.838.996.753.415 1.674.371 2.932.387h10.012c1.258-.015 2.178.03 2.931-.385a1.88 1.88 0 00.838-.998c.165-.439.225-.96.225-1.617V5.973c0-.658-.06-1.179-.225-1.617a1.875 1.875 0 00-.838-.996c-.753-.416-1.673-.372-2.932-.387H7.015z" style="line-height:125%;-inkscape-font-specification:Ubuntu;text-align:center" font-weight="400" font-size="15" font-family="Ubuntu" letter-spacing="0" word-spacing="0" text-anchor="middle" opacity=".6"/><path d="M10 4c-1.557.01-3.11-.012-4.66.039-.461.042-1.016.206-1.155.71-.22.635-.109 1.334-.146 1.982-.008 2.297-.023 8.596.021 10.886.04.462.203 1.012.7 1.163.632.225 1.283.123 1.935.155 1.424.006 4.85.01 6.277.01 1.704.001 3.408-.004 5.107-.018.512-.012 1.183.02 1.585-.405.42-.54.287-1.268.322-1.904.012-2.444.028-8.91-.022-11.357-.049-.402-.17-.863-.575-1.044-.668-.294-1.426-.168-2.126-.206C15.51 4 11.754 4 10 4z" fill="#fff"/><path d="M10 12v5h7v-5h-1.75z" fill="#80a3fa"/><path d="M7 6v8h4V6z" fill="#d85eca"/></svg>
